public/brand/logo_type.svg

<svg width="415" height="68" viewBox="0 0 415 68" fill="none" xmlns="http://www.w3.org/2000/svg">
<path fill-rule="evenodd" clip-rule="evenodd" d="M22.2965 2.88532C18.0297 4.38731 14.4928 7.51577 12.5588 9.93879L12.5394 9.96308L12.5185 9.98612C7.32312 15.7249 4.48322 22.1938 3.10065 28.8583L16.6063 28.138C16.6709 27.6931 16.7569 27.2337 16.8682 26.7632L16.877 26.726L16.8886 26.6895C17.311 25.3633 18.3259 23.5487 20.0725 22.5085C21.9099 21.4143 24.3463 21.3 27.2687 23.0477C28.1358 23.5592 29.4561 24.3249 30.602 24.9614C31.1767 25.2806 31.6987 25.5625 32.0946 25.7626C32.2044 25.8181 32.3007 25.8654 32.383 25.9043C33.0393 25.5986 33.9263 25.2941 34.8568 25.1897C35.6826 25.097 36.6494 25.1539 37.5073 25.6092C38.3733 24.6211 39.5165 23.7207 40.6383 22.9671C42.0846 21.9956 43.591 21.2054 44.6567 20.7273L44.7363 20.6916L44.8208 20.6703C48.5427 19.7339 50.9974 20.1456 52.4392 21.4694C53.8678 22.7811 53.9646 24.6764 53.7017 25.9242L57.4272 25.6538C56.8002 23.6042 55.6653 21.7425 54.0678 20.0907C53.1093 19.0995 52.0616 18.4247 50.9779 17.9869C49.4383 17.365 47.7947 17.2093 46.1943 17.3465C43.5058 17.5768 41.0278 18.6267 39.5855 19.519L37.0042 21.1159L38.1398 18.2902C40.845 11.5596 37.9639 6.88197 36.3461 5.44852C31.4156 1.49225 26.4992 1.40586 22.2965 2.88532ZM40.5305 8.51577C41.2751 10.6929 41.5729 13.463 40.7598 16.6822C42.0352 16.1455 43.5475 15.6781 45.1645 15.4482C45.1181 14.6762 44.8341 13.7759 44.3918 12.8494C43.8457 11.7055 43.1309 10.6715 42.6224 10.048L40.5305 8.51577ZM47.1513 15.297C48.6355 15.286 50.1756 15.5126 51.6687 16.1069C52.2766 16.2835 53.039 16.6875 53.8119 17.1537C54.6391 17.6528 55.5738 18.2829 56.5131 18.9501C58.393 20.2855 60.3348 21.8009 61.5515 22.7908L61.5922 22.8239L61.6293 22.8612C66.5957 27.854 66.9857 34.5097 64.5205 41.0004C62.0644 47.4672 56.7483 53.9014 50.0374 58.7995C44.5734 62.7876 36.6354 65.1197 29.0431 66.4387C21.424 67.7624 14.0145 68.0883 9.49992 67.981L9.20387 67.974L2.56201 63.3897L2.48966 62.9751C1.17063 55.4168 -0.386532 46.255 0.0867275 36.9591C0.208862 34.5601 0.466227 32.1482 0.89856 29.7482C2.23137 22.3495 5.22618 15.0743 11.0245 8.66011C13.1297 6.03116 16.946 2.6459 21.6382 0.994148C26.3988 -0.681725 32.0532 -0.560215 37.5902 3.88342L43.9936 8.57344L44.0714 8.66646C44.6743 9.38659 45.5316 10.6071 46.188 11.9823C46.6607 12.9723 47.0756 14.1377 47.1513 15.297ZM58.4827 22.9094C59.0136 23.9998 59.4112 25.1512 59.6646 26.36C60.9795 32.6337 58.3623 40.142 51.1145 48.3759C47.3268 53.0304 40.4112 57.0722 32.022 59.8529C24.5234 62.3384 15.7526 63.8485 6.77318 63.8661L9.84198 65.9842C14.2665 66.0679 21.3897 65.735 28.7039 64.4643C36.2099 63.1602 43.7797 60.891 48.867 57.1779C55.3452 52.4496 60.3726 46.3059 62.6592 40.2855C64.9301 34.3064 64.4711 28.5815 60.2571 24.315C59.7649 23.9152 59.1558 23.4309 58.4827 22.9094ZM4.3128 61.8287C3.06985 54.6755 1.72671 46.3678 2.03777 37.9467L15.8035 36.9666C15.8409 37.116 15.8873 37.263 15.9421 37.4073C16.4235 38.6752 17.4825 39.5315 18.2771 39.9495L18.3792 40.0032L18.4909 40.0321C18.8166 40.1162 19.1437 40.1861 19.4713 40.2428C22.2261 40.7197 25.0393 40.2717 27.414 39.5421C29.5673 38.8804 31.4202 37.9687 32.6302 37.2238C33.642 37.6148 34.9559 37.8198 36.3274 37.3246C37.8275 38.5576 40.0224 40.0037 42.2671 40.7299C43.5212 41.1357 44.8644 41.3409 46.1404 41.093C47.2255 40.8822 48.2172 40.3509 49.0207 39.4289C49.5795 39.5424 50.2461 39.5017 50.8684 39.0697C51.8314 38.4014 52.2792 37.0666 52.2792 35.1605V35.1125L52.2746 35.0647C52.256 34.8705 52.2413 34.6326 52.233 34.3577L57.3932 33.8976C56.3395 37.8207 53.8618 42.235 49.6098 47.0623L49.5965 47.0773L49.5839 47.0929C46.1419 51.3317 39.6306 55.2212 31.3982 57.9499C23.4159 60.5957 13.9273 62.1122 4.3128 61.8287ZM57.8229 31.8477C58.0441 30.3609 58.0508 28.9536 57.8648 27.6309L53.0171 27.9828C52.5871 29.538 52.3724 31.0649 52.2815 32.3419L57.8229 31.8477ZM49.2277 37.4073C49.458 37.5114 49.6409 37.4871 49.7366 37.4207C49.827 37.358 50.0693 37.1103 50.2001 36.3444C49.7147 35.8389 48.9531 35.4319 47.9325 35.1596C46.7436 34.8424 45.3139 34.7392 43.8526 34.8201C42.8081 34.878 41.7701 35.0288 40.8214 35.25C41.5771 35.3004 42.3529 35.3708 43.1162 35.4659C44.3378 35.6183 45.5523 35.837 46.6122 36.1487C47.5963 36.4381 48.5437 36.8346 49.2277 37.4073ZM37.0514 34.5137C37.6749 34.1625 38.395 33.8698 39.1455 33.6326C40.5238 33.197 42.1337 32.9087 43.743 32.8195C45.3487 32.7305 46.9982 32.8373 48.4435 33.2229C49.0682 33.3896 49.6769 33.6146 50.2336 33.9121C50.2278 31.8473 50.5337 28.5564 51.7669 25.4368C51.9278 24.5837 51.783 23.5801 51.0957 22.9491C50.4022 22.3124 48.8204 21.7453 45.3891 22.593C44.4177 23.0344 43.0511 23.756 41.745 24.6333C40.3839 25.5476 39.1813 26.57 38.5186 27.5561C38.2296 27.9862 38.0735 28.3655 38.0239 28.6897L38.0156 28.7443L38.0013 28.7977C37.9083 29.1453 37.7969 29.6989 37.7653 30.2019C37.7495 30.4546 37.7564 30.6561 37.7795 30.7959C37.7855 30.8324 37.7916 30.8585 37.7964 30.8761L38.34 31.4232L37.8501 32.1134C37.616 32.4433 37.2907 33.0607 37.1373 33.754C37.0798 34.0136 37.0495 34.2683 37.0514 34.5137ZM35.1853 35.5626C34.9913 34.776 35.0434 33.9924 35.1923 33.319C35.3481 32.6148 35.6202 31.9762 35.8964 31.48C35.8573 31.3529 35.8316 31.2313 35.8139 31.1238C35.7567 30.7775 35.7558 30.4097 35.7768 30.0757C35.8173 29.4308 35.9493 28.7683 36.0637 28.3283C36.1241 27.9709 36.2358 27.6259 36.384 27.2959C36.0283 27.1606 35.5902 27.1235 35.0778 27.181C34.4851 27.2476 33.8926 27.4334 33.4225 27.6326C33.3835 27.8283 33.3295 28.0531 33.2732 28.2814C33.2475 28.3857 33.2203 28.4946 33.192 28.6078C33.0416 29.2104 32.861 29.9337 32.7136 30.7128C32.538 31.6406 32.4209 32.5923 32.4556 33.4342C32.487 34.1963 32.6388 34.7641 32.8871 35.1455C33.52 35.4814 34.3367 35.7159 35.1853 35.5626ZM30.5262 34.2331C30.4939 33.9931 30.4745 33.7532 30.4648 33.5171C30.421 32.454 30.5684 31.3306 30.7562 30.3382C30.9155 29.4967 31.1121 28.7097 31.2623 28.1083C31.2897 27.9988 31.3155 27.8955 31.3393 27.7991C31.353 27.7434 31.3658 27.6909 31.3777 27.6416C31.32 27.6132 31.2605 27.5836 31.1997 27.5528C30.7693 27.3352 30.2207 27.0387 29.6386 26.7153C28.4716 26.0671 27.1339 25.2912 26.2581 24.7745L26.2554 24.7729L26.2527 24.7713C23.8395 23.3273 22.1902 23.5761 21.0878 24.2326C19.9077 24.9354 19.1328 26.2379 18.7976 27.2652C18.1322 30.1137 18.5423 32.4186 18.7793 33.1103L18.9669 33.658L18.5886 34.0948C17.5595 35.2827 17.5908 36.1326 17.8035 36.6925C17.8313 36.7658 17.8636 36.8376 17.8998 36.9078C17.9288 36.7697 17.9712 36.6303 18.0294 36.4914C18.2429 35.9825 18.6315 35.5733 19.16 35.2808C19.7684 34.944 20.7079 34.7077 21.6968 34.5349C22.7234 34.3556 23.9304 34.2246 25.1576 34.1492C27.0056 34.0357 28.9953 34.0424 30.5262 34.2331ZM20.1891 38.327C22.4188 38.6327 24.7518 38.2649 26.8318 37.6258C28.1536 37.2197 29.3468 36.7121 30.3116 36.2247C28.9955 36.0577 27.1356 36.0351 25.2791 36.1491C24.1061 36.2212 22.9749 36.3453 22.0379 36.5091C21.0632 36.6793 20.4138 36.874 20.1207 37.0362C19.928 37.1429 19.8809 37.2329 19.8652 37.2702C19.8446 37.3195 19.8264 37.4096 19.8545 37.5664C19.8982 37.8103 20.0317 38.0883 20.1891 38.327ZM39.5375 37.1871C40.5772 37.8509 41.7349 38.4529 42.8773 38.8225C43.9483 39.169 44.932 39.287 45.7624 39.1257C46.2646 39.0281 46.7332 38.825 47.1542 38.4712C46.8473 38.3319 46.4802 38.1975 46.0529 38.0719C45.1325 37.8012 44.0324 37.5992 42.871 37.4544C41.7543 37.3152 40.6039 37.2315 39.5375 37.1871ZM15.8459 34.9549C16.0074 34.386 16.2985 33.8008 16.7391 33.2095C16.5692 32.4891 16.4254 31.4293 16.4447 30.1531L2.72513 30.8849C2.45077 32.5601 2.26186 34.2448 2.14466 35.9303L15.8459 34.9549Z" fill="black"/>
<path d="M112.27 11.602V23.656H120.388V33.332H112.27V50.224C112.27 51.9187 112.653 53.1213 113.418 53.832C114.183 54.5427 115.386 54.898 117.026 54.898C118.502 54.898 119.623 54.7887 120.388 54.57V63.59C118.803 64.246 116.753 64.574 114.238 64.574C110.302 64.574 107.186 63.4807 104.89 61.294C102.594 59.0527 101.446 55.9913 101.446 52.11V33.332H94.148V23.656H96.198C98.2207 23.656 99.7513 23.082 100.79 21.934C101.883 20.7313 102.43 19.1733 102.43 17.26V11.602H112.27Z" fill="black"/>
<path d="M153.692 23.492V34.48C152.598 34.2613 151.505 34.152 150.412 34.152C147.296 34.152 144.781 35.054 142.868 36.858C140.954 38.6073 139.998 41.5047 139.998 45.55V64H129.092V23.656H139.67V29.642C141.638 25.4327 145.464 23.328 151.15 23.328C151.751 23.328 152.598 23.3827 153.692 23.492Z" fill="black"/>
<path d="M168.917 39.236H186.957C186.847 36.9947 186.027 35.1087 184.497 33.578C183.021 32.0473 180.834 31.282 177.937 31.282C175.313 31.282 173.181 32.102 171.541 33.742C169.901 35.382 169.026 37.2133 168.917 39.236ZM188.023 49.732L197.125 52.438C196.031 56.1553 193.872 59.2167 190.647 61.622C187.476 64.0273 183.513 65.23 178.757 65.23C172.962 65.23 168.042 63.2893 163.997 59.408C159.951 55.472 157.929 50.224 157.929 43.664C157.929 37.432 159.897 32.348 163.833 28.412C167.769 24.4213 172.415 22.426 177.773 22.426C184.005 22.426 188.87 24.2847 192.369 28.002C195.922 31.7193 197.699 36.8307 197.699 43.336C197.699 43.7733 197.671 44.2653 197.617 44.812C197.617 45.3587 197.617 45.796 197.617 46.124L197.535 46.698H168.671C168.78 49.322 169.819 51.5087 171.787 53.258C173.755 55.0073 176.105 55.882 178.839 55.882C183.485 55.882 186.547 53.832 188.023 49.732Z" fill="black"/>
<path d="M203.827 53.012C203.827 49.568 204.948 46.8073 207.189 44.73C209.43 42.6527 212.328 41.3407 215.881 40.794L225.803 39.318C227.826 39.0447 228.837 38.088 228.837 36.448C228.837 34.9173 228.236 33.66 227.033 32.676C225.885 31.692 224.218 31.2 222.031 31.2C219.735 31.2 217.904 31.8287 216.537 33.086C215.225 34.3433 214.487 35.9013 214.323 37.76L204.647 35.71C205.03 32.2113 206.752 29.1227 209.813 26.444C212.874 23.7653 216.92 22.426 221.949 22.426C227.962 22.426 232.39 23.8747 235.233 26.772C238.076 29.6147 239.497 33.2773 239.497 37.76V57.604C239.497 60.0093 239.661 62.1413 239.989 64H229.985C229.712 62.7973 229.575 61.1847 229.575 59.162C227.006 63.1527 223.042 65.148 217.685 65.148C213.53 65.148 210.168 63.9453 207.599 61.54C205.084 59.1347 203.827 56.292 203.827 53.012ZM219.981 57.03C222.55 57.03 224.655 56.3193 226.295 54.898C227.99 53.422 228.837 51.0167 228.837 47.682V45.878L219.735 47.272C216.4 47.764 214.733 49.4587 214.733 52.356C214.733 53.668 215.198 54.7887 216.127 55.718C217.056 56.5927 218.341 57.03 219.981 57.03Z" fill="black"/>
<path d="M263.698 11.602V23.656H271.816V33.332H263.698V50.224C263.698 51.9187 264.08 53.1213 264.846 53.832C265.611 54.5427 266.814 54.898 268.454 54.898C269.93 54.898 271.05 54.7887 271.816 54.57V63.59C270.23 64.246 268.18 64.574 265.666 64.574C261.73 64.574 258.614 63.4807 256.318 61.294C254.022 59.0527 252.874 55.9913 252.874 52.11V33.332H245.576V23.656H247.626C249.648 23.656 251.179 23.082 252.218 21.934C253.311 20.7313 253.858 19.1733 253.858 17.26V11.602H263.698Z" fill="black"/>
<path d="M319.137 4.632V56.702C319.137 59.3807 319.247 61.8133 319.465 64H309.051C308.778 62.6333 308.641 61.0753 308.641 59.326C307.712 61.0207 306.236 62.3873 304.213 63.426C302.245 64.4647 299.949 64.984 297.325 64.984C291.585 64.984 286.857 62.9887 283.139 58.998C279.477 54.9527 277.645 49.8687 277.645 43.746C277.645 37.7873 279.449 32.7853 283.057 28.74C286.72 24.6947 291.367 22.672 296.997 22.672C302.792 22.672 306.591 24.3393 308.395 27.674V4.632H319.137ZM288.633 43.746C288.633 47.2993 289.563 50.1147 291.421 52.192C293.28 54.2147 295.685 55.226 298.637 55.226C301.535 55.226 303.913 54.1873 305.771 52.11C307.63 50.0327 308.559 47.2173 308.559 43.664C308.559 40.1653 307.63 37.432 305.771 35.464C303.913 33.4413 301.535 32.43 298.637 32.43C295.74 32.43 293.335 33.4413 291.421 35.464C289.563 37.4867 288.633 40.2473 288.633 43.746Z" fill="black"/>
<path d="M328.268 53.012C328.268 49.568 329.389 46.8073 331.63 44.73C333.872 42.6527 336.769 41.3407 340.322 40.794L350.244 39.318C352.267 39.0447 353.278 38.088 353.278 36.448C353.278 34.9173 352.677 33.66 351.474 32.676C350.326 31.692 348.659 31.2 346.472 31.2C344.176 31.2 342.345 31.8287 340.978 33.086C339.666 34.3433 338.928 35.9013 338.764 37.76L329.088 35.71C329.471 32.2113 331.193 29.1227 334.254 26.444C337.316 23.7653 341.361 22.426 346.39 22.426C352.404 22.426 356.832 23.8747 359.674 26.772C362.517 29.6147 363.938 33.2773 363.938 37.76V57.604C363.938 60.0093 364.102 62.1413 364.43 64H354.426C354.153 62.7973 354.016 61.1847 354.016 59.162C351.447 63.1527 347.484 65.148 342.126 65.148C337.972 65.148 334.61 63.9453 332.04 61.54C329.526 59.1347 328.268 56.292 328.268 53.012ZM344.422 57.03C346.992 57.03 349.096 56.3193 350.736 54.898C352.431 53.422 353.278 51.0167 353.278 47.682V45.878L344.176 47.272C340.842 47.764 339.174 49.4587 339.174 52.356C339.174 53.668 339.639 54.7887 340.568 55.718C341.498 56.5927 342.782 57.03 344.422 57.03Z" fill="black"/>
<path d="M385.595 52.274C387.618 54.2967 390.051 55.308 392.893 55.308C395.736 55.308 398.141 54.2967 400.109 52.274C402.132 50.2513 403.143 47.436 403.143 43.828C403.143 40.22 402.132 37.4047 400.109 35.382C398.141 33.3593 395.736 32.348 392.893 32.348C390.051 32.348 387.618 33.3593 385.595 35.382C383.627 37.4047 382.643 40.22 382.643 43.828C382.643 47.436 383.627 50.2513 385.595 52.274ZM377.723 28.494C381.769 24.4487 386.825 22.426 392.893 22.426C398.961 22.426 403.991 24.4487 407.981 28.494C412.027 32.5393 414.049 37.6507 414.049 43.828C414.049 50.0053 412.027 55.1167 407.981 59.162C403.991 63.2073 398.961 65.23 392.893 65.23C386.825 65.23 381.769 63.2073 377.723 59.162C373.733 55.1167 371.737 50.0053 371.737 43.828C371.737 37.6507 373.733 32.5393 377.723 28.494Z" fill="black"/>
</svg>

<svg width="415" height="68" viewBox="0 0 415 68" fill="none" xmlns="http://www.w3.org/2000/svg"><path fill-rule="evenodd" clip-rule="evenodd" d="M22.297 2.885c-4.267 1.502-7.804 4.63-9.738 7.054l-.02.024-.02.023C7.322 15.725 4.482 22.194 3.1 28.858l13.505-.72c.065-.445.15-.904.262-1.375l.009-.037.012-.037c.422-1.326 1.437-3.14 3.184-4.18 1.837-1.095 4.273-1.209 7.196.539a160.99 160.99 0 0 0 3.333 1.913c.575.32 1.097.602 1.493.802.11.055.206.102.288.141.656-.305 1.543-.61 2.474-.714.826-.093 1.792-.036 2.65.42.866-.989 2.01-1.89 3.131-2.643a28.513 28.513 0 0 1 4.019-2.24l.08-.035.084-.022c3.722-.936 6.176-.524 7.618.8 1.429 1.311 1.526 3.206 1.263 4.454l3.725-.27c-.627-2.05-1.762-3.912-3.36-5.563a8.907 8.907 0 0 0-3.09-2.104c-1.539-.622-3.182-.778-4.783-.64-2.688.23-5.166 1.28-6.608 2.172l-2.582 1.597 1.136-2.826c2.705-6.73-.176-11.408-1.794-12.841-4.93-3.957-9.847-4.043-14.05-2.564Zm18.234 5.63c.744 2.178 1.042 4.948.229 8.167a18.04 18.04 0 0 1 4.404-1.234c-.046-.772-.33-1.672-.772-2.599a14.755 14.755 0 0 0-1.77-2.801l-2.091-1.532Zm6.62 6.782c1.484-.011 3.025.216 4.518.81.608.177 1.37.58 2.143 1.047a44.961 44.961 0 0 1 2.701 1.796 103.62 103.62 0 0 1 5.038 3.84l.041.034.037.037c4.967 4.993 5.357 11.649 2.892 18.14-2.457 6.466-7.773 12.9-14.484 17.799-5.464 3.988-13.402 6.32-20.994 7.639-7.619 1.323-15.028 1.65-19.543 1.542l-.296-.007-6.642-4.584-.072-.415C1.17 55.417-.387 46.255.087 36.96c.122-2.399.38-4.81.812-7.21 1.332-7.4 4.327-14.675 10.126-21.089 2.105-2.63 5.92-6.015 10.612-7.667C26.398-.682 32.053-.56 37.59 3.884l6.404 4.69.077.092a16.66 16.66 0 0 1 2.117 3.316c.473.99.888 2.156.963 3.315Zm11.332 7.612c.53 1.09.928 2.242 1.182 3.451 1.315 6.274-1.303 13.782-8.55 22.016-3.788 4.654-10.704 8.696-19.093 11.477-7.499 2.485-16.27 3.995-25.249 4.013l3.069 2.118c4.425.084 11.548-.249 18.862-1.52 7.506-1.304 15.076-3.573 20.163-7.286 6.478-4.728 11.506-10.872 13.792-16.892 2.271-5.98 1.812-11.705-2.402-15.971-.492-.4-1.101-.884-1.774-1.406ZM4.313 61.83C3.07 54.675 1.727 46.368 2.038 37.947l13.765-.98c.038.149.084.296.14.44.48 1.268 1.54 2.125 2.334 2.543l.102.053.112.03c.326.083.653.153.98.21 2.755.477 5.568.029 7.943-.7 2.153-.663 4.006-1.574 5.216-2.32 1.012.392 2.326.597 3.697.102 1.5 1.233 3.695 2.679 5.94 3.405 1.254.406 2.597.61 3.873.363a5.013 5.013 0 0 0 2.88-1.664c.56.113 1.226.073 1.848-.36.963-.668 1.411-2.002 1.411-3.909v-.047l-.004-.048a11.053 11.053 0 0 1-.042-.707l5.16-.46c-1.053 3.923-3.531 8.337-7.783 13.164l-.014.015-.012.016c-3.442 4.239-9.953 8.128-18.186 10.857-7.982 2.646-17.47 4.162-27.085 3.879Zm53.51-29.981c.221-1.487.228-2.894.042-4.217l-4.848.352a22.596 22.596 0 0 0-.736 4.359l5.542-.494Zm-8.595 5.56c.23.103.413.08.509.013.09-.063.332-.31.463-1.077-.485-.505-1.247-.912-2.268-1.184-1.188-.318-2.618-.42-4.08-.34a17.867 17.867 0 0 0-3.03.43c.755.05 1.53.12 2.294.216 1.222.152 2.436.371 3.496.683.984.29 1.932.686 2.616 1.258ZM37.05 34.513a11.17 11.17 0 0 1 2.094-.881c1.379-.436 2.989-.724 4.598-.814 1.606-.089 3.255.018 4.7.404a8.4 8.4 0 0 1 1.79.69c-.005-2.066.3-5.357 1.534-8.476.16-.853.016-1.857-.671-2.488-.694-.637-2.276-1.204-5.707-.356a26.635 26.635 0 0 0-3.644 2.04c-1.361.915-2.564 1.937-3.226 2.923-.29.43-.445.81-.495 1.134l-.008.054-.015.054a7.802 7.802 0 0 0-.236 1.404c-.016.253-.009.454.014.594a.799.799 0 0 0 .017.08l.544.547-.49.69c-.234.33-.56.948-.713 1.641-.057.26-.087.514-.086.76Zm-1.866 1.049c-.194-.787-.142-1.57.007-2.244a6.931 6.931 0 0 1 .704-1.839 2.71 2.71 0 0 1-.082-.356 4.732 4.732 0 0 1-.037-1.048c.04-.645.172-1.308.287-1.748.06-.357.172-.702.32-1.032-.356-.135-.794-.172-1.306-.115a6.148 6.148 0 0 0-1.656.452c-.038.195-.092.42-.149.648l-.081.327c-.15.602-.331 1.326-.478 2.105-.176.928-.293 1.88-.258 2.721.031.762.183 1.33.431 1.712.633.335 1.45.57 2.298.417Zm-4.659-1.33a7.764 7.764 0 0 1-.061-.716c-.044-1.063.103-2.186.291-3.179.16-.841.356-1.628.506-2.23a103.173 103.173 0 0 0 .116-.466 48.334 48.334 0 0 1-1.74-.926 163.063 163.063 0 0 1-3.38-1.942l-.003-.001-.002-.002c-2.413-1.444-4.063-1.195-5.165-.538-1.18.702-1.955 2.005-2.29 3.032-.666 2.849-.256 5.154-.019 5.845l.188.548-.378.437c-1.03 1.188-.998 2.038-.785 2.598.027.073.06.145.096.215.029-.138.071-.278.13-.417.213-.508.601-.918 1.13-1.21.608-.337 1.548-.573 2.537-.746 1.026-.18 2.233-.31 3.46-.386 1.849-.113 3.838-.107 5.37.084ZM20.19 38.327c2.23.306 4.563-.062 6.643-.701a22.428 22.428 0 0 0 3.48-1.401c-1.317-.167-3.176-.19-5.033-.076a30.191 30.191 0 0 0-3.241.36c-.975.17-1.624.365-1.917.527-.193.107-.24.197-.256.234a.529.529 0 0 0-.01.296c.043.244.177.522.334.761Zm19.349-1.14c1.04.664 2.197 1.266 3.34 1.636 1.07.346 2.054.464 2.884.303a3.009 3.009 0 0 0 1.392-.655 8.453 8.453 0 0 0-1.101-.4c-.92-.27-2.02-.472-3.182-.617a41.213 41.213 0 0 0-3.334-.267Zm-23.692-2.232c.161-.569.453-1.154.893-1.745-.17-.72-.314-1.78-.294-3.057l-13.72.732a54.685 54.685 0 0 0-.58 5.045l13.7-.975Z" fill="#000"/><path d="M112.27 11.602v12.054h8.118v9.676h-8.118v16.892c0 1.695.383 2.897 1.148 3.608.765.71 1.968 1.066 3.608 1.066 1.476 0 2.597-.11 3.362-.328v9.02c-1.585.656-3.635.984-6.15.984-3.936 0-7.052-1.093-9.348-3.28-2.296-2.241-3.444-5.303-3.444-9.184V33.332h-7.298v-9.676h2.05c2.023 0 3.553-.574 4.592-1.722 1.093-1.203 1.64-2.76 1.64-4.674v-5.658h9.84Zm41.422 11.89V34.48a16.692 16.692 0 0 0-3.28-.328c-3.116 0-5.631.902-7.544 2.706-1.914 1.75-2.87 4.647-2.87 8.692V64h-10.906V23.656h10.578v5.986c1.968-4.21 5.794-6.314 11.48-6.314.601 0 1.448.055 2.542.164Zm15.225 15.744h18.04c-.11-2.241-.93-4.127-2.46-5.658-1.476-1.53-3.663-2.296-6.56-2.296-2.624 0-4.756.82-6.396 2.46-1.64 1.64-2.515 3.471-2.624 5.494Zm19.106 10.496 9.102 2.706c-1.094 3.717-3.253 6.779-6.478 9.184-3.171 2.405-7.134 3.608-11.89 3.608-5.795 0-10.715-1.94-14.76-5.822-4.046-3.936-6.068-9.184-6.068-15.744 0-6.232 1.968-11.316 5.904-15.252 3.936-3.99 8.582-5.986 13.94-5.986 6.232 0 11.097 1.859 14.596 5.576 3.553 3.717 5.33 8.829 5.33 15.334 0 .437-.028.93-.082 1.476v1.312l-.082.574h-28.864c.109 2.624 1.148 4.81 3.116 6.56 1.968 1.75 4.318 2.624 7.052 2.624 4.646 0 7.708-2.05 9.184-6.15Zm15.804 3.28c0-3.444 1.121-6.205 3.362-8.282s5.139-3.39 8.692-3.936l9.922-1.476c2.023-.273 3.034-1.23 3.034-2.87 0-1.53-.601-2.788-1.804-3.772-1.148-.984-2.815-1.476-5.002-1.476-2.296 0-4.127.629-5.494 1.886-1.312 1.257-2.05 2.815-2.214 4.674l-9.676-2.05c.383-3.499 2.105-6.587 5.166-9.266 3.061-2.679 7.107-4.018 12.136-4.018 6.013 0 10.441 1.449 13.284 4.346 2.843 2.843 4.264 6.505 4.264 10.988v19.844c0 2.405.164 4.537.492 6.396h-10.004c-.273-1.203-.41-2.815-.41-4.838-2.569 3.99-6.533 5.986-11.89 5.986-4.155 0-7.517-1.203-10.086-3.608-2.515-2.405-3.772-5.248-3.772-8.528Zm16.154 4.018c2.569 0 4.674-.71 6.314-2.132 1.695-1.476 2.542-3.881 2.542-7.216v-1.804l-9.102 1.394c-3.335.492-5.002 2.187-5.002 5.084 0 1.312.465 2.433 1.394 3.362.929.875 2.214 1.312 3.854 1.312Zm43.717-45.428v12.054h8.118v9.676h-8.118v16.892c0 1.695.382 2.897 1.148 3.608.765.71 1.968 1.066 3.608 1.066 1.476 0 2.596-.11 3.362-.328v9.02c-1.586.656-3.636.984-6.15.984-3.936 0-7.052-1.093-9.348-3.28-2.296-2.241-3.444-5.303-3.444-9.184V33.332h-7.298v-9.676h2.05c2.022 0 3.553-.574 4.592-1.722 1.093-1.203 1.64-2.76 1.64-4.674v-5.658h9.84Zm55.439-6.97v52.07c0 2.679.11 5.111.328 7.298h-10.414c-.273-1.367-.41-2.925-.41-4.674-.929 1.695-2.405 3.061-4.428 4.1-1.968 1.039-4.264 1.558-6.888 1.558-5.74 0-10.468-1.995-14.186-5.986-3.662-4.045-5.494-9.13-5.494-15.252 0-5.959 1.804-10.96 5.412-15.006 3.663-4.045 8.31-6.068 13.94-6.068 5.795 0 9.594 1.667 11.398 5.002V4.632h10.742Zm-30.504 39.114c0 3.553.93 6.369 2.788 8.446 1.859 2.023 4.264 3.034 7.216 3.034 2.898 0 5.276-1.039 7.134-3.116 1.859-2.077 2.788-4.893 2.788-8.446 0-3.499-.929-6.232-2.788-8.2-1.858-2.023-4.236-3.034-7.134-3.034-2.897 0-5.302 1.011-7.216 3.034-1.858 2.023-2.788 4.783-2.788 8.282Zm39.635 9.266c0-3.444 1.121-6.205 3.362-8.282 2.242-2.077 5.139-3.39 8.692-3.936l9.922-1.476c2.023-.273 3.034-1.23 3.034-2.87 0-1.53-.601-2.788-1.804-3.772-1.148-.984-2.815-1.476-5.002-1.476-2.296 0-4.127.629-5.494 1.886-1.312 1.257-2.05 2.815-2.214 4.674l-9.676-2.05c.383-3.499 2.105-6.587 5.166-9.266 3.062-2.679 7.107-4.018 12.136-4.018 6.014 0 10.442 1.449 13.284 4.346 2.843 2.843 4.264 6.505 4.264 10.988v19.844c0 2.405.164 4.537.492 6.396h-10.004c-.273-1.203-.41-2.815-.41-4.838-2.569 3.99-6.532 5.986-11.89 5.986-4.154 0-7.516-1.203-10.086-3.608-2.514-2.405-3.772-5.248-3.772-8.528Zm16.154 4.018c2.57 0 4.674-.71 6.314-2.132 1.695-1.476 2.542-3.881 2.542-7.216v-1.804l-9.102 1.394c-3.334.492-5.002 2.187-5.002 5.084 0 1.312.465 2.433 1.394 3.362.93.875 2.214 1.312 3.854 1.312Zm41.173-4.756c2.023 2.023 4.456 3.034 7.298 3.034 2.843 0 5.248-1.011 7.216-3.034 2.023-2.023 3.034-4.838 3.034-8.446 0-3.608-1.011-6.423-3.034-8.446-1.968-2.023-4.373-3.034-7.216-3.034-2.842 0-5.275 1.011-7.298 3.034-1.968 2.023-2.952 4.838-2.952 8.446 0 3.608.984 6.423 2.952 8.446Zm-7.872-23.78c4.046-4.045 9.102-6.068 15.17-6.068s11.098 2.023 15.088 6.068c4.046 4.045 6.068 9.157 6.068 15.334s-2.022 11.289-6.068 15.334c-3.99 4.045-9.02 6.068-15.088 6.068s-11.124-2.023-15.17-6.068c-3.99-4.045-5.986-9.157-5.986-15.334s1.996-11.289 5.986-15.334Z" fill="#000"/></svg>
